.forestry/content/images/shield.svg

<svg enable-background="new 0 0 414.7 512" fill="#fff" viewBox="0 0 414.7 512" xmlns="http://www.w3.org/2000/svg"><path d="m393.8 52-166.7-49.1c-12.9-3.8-26.6-3.8-39.6 0l-166.6 49.1c-12.3 3.6-20.9 15.1-20.9 28v138c0 63.9 19 125.4 55 177.9 35.1 51.2 84 90.7 141.3 114 3.6 1.4 7.3 2.2 11 2.2s7.5-.7 11-2.2c57.3-23.3 106.2-62.8 141.3-114 36-52.5 55-114 55-177.9v-138c.1-12.9-8.5-24.4-20.8-28zm-2.5 166c0 59.1-17.6 116.1-50.9 164.7-32.5 47.5-77.8 84-130.9 105.6-1.4.6-3 .6-4.5 0-53.1-21.6-98.4-58.1-130.9-105.6-33.2-48.6-50.8-105.6-50.8-164.7v-138c0-2.6 1.7-4.9 4.2-5.6l166.7-49.1c4.3-1.3 8.8-1.9 13.2-1.9s8.9.6 13.2 1.9l166.7 49.1c2.5.7 4.2 3 4.2 5.6z"/><path d="m336.5 103.6-124.2-36.7c-3.2-1-6.7-1-9.9 0l-124.2 36.7c-7.4 2.2-12.5 9.1-12.5 16.8v97.6c0 51.6 15.6 101.1 45.1 143.1 22.9 32.6 53.5 59.5 88.5 77.8 2.5 1.3 5.3 2 8.1 2s5.6-.7 8.1-2c35-18.3 65.6-45.2 88.5-77.8 29.5-42 45.1-91.5 45.1-143.1v-97.6c-.1-7.8-5.2-14.7-12.6-16.8zm-10.8 114.4c0 46.8-14.1 91.6-40.9 129.7-20.2 28.7-46.9 52.6-77.5 69.1-30.6-16.6-57.3-40.4-77.5-69.1-26.7-38.1-40.8-83-40.8-129.7v-93.3l118.4-34.9 118.4 34.9v93.3z"/></svg>

<?xml version="1.0" encoding="UTF-8"?> <!-- Generator: Adobe Illustrator 23.0.2, SVG Export Plug-In . SVG Version: 6.00 Build 0) --> <svg xmlns="http://www.w3.org/2000/svg" fill="#FFFFFF" xmlns:xlink="http://www.w3.org/1999/xlink" id="Layer_1" x="0px" y="0px" viewBox="0 0 414.7 512" style="enable-background:new 0 0 414.7 512;" xml:space="preserve"> <metadata><?xpacket begin="﻿" id="W5M0MpCehiHzreSzNTczkc9d"?> <?xpacket end="w"?></metadata> <g> <g> <path d="M393.8,52L227.1,2.9c-12.9-3.8-26.6-3.8-39.6,0L20.9,52C8.6,55.6,0,67.1,0,80v138c0,63.9,19,125.4,55,177.9 c35.1,51.2,84,90.7,141.3,114c3.6,1.4,7.3,2.2,11,2.2s7.5-0.7,11-2.2c57.3-23.3,106.2-62.8,141.3-114c36-52.5,55-114,55-177.9V80 C414.7,67.1,406.1,55.6,393.8,52z M391.3,218c0,59.1-17.6,116.1-50.9,164.7c-32.5,47.5-77.8,84-130.9,105.6c-1.4,0.6-3,0.6-4.5,0 c-53.1-21.6-98.4-58.1-130.9-105.6C40.9,334.1,23.3,277.1,23.3,218V80c0-2.6,1.7-4.9,4.2-5.6l166.7-49.1c4.3-1.3,8.8-1.9,13.2-1.9 c4.4,0,8.9,0.6,13.2,1.9l166.7,49.1c2.5,0.7,4.2,3,4.2,5.6L391.3,218L391.3,218z"></path> </g> </g> <g> <g> <path d="M336.5,103.6L212.3,66.9c-3.2-1-6.7-1-9.9,0L78.2,103.6c-7.4,2.2-12.5,9.1-12.5,16.8V218c0,51.6,15.6,101.1,45.1,143.1 c22.9,32.6,53.5,59.5,88.5,77.8c2.5,1.3,5.3,2,8.1,2c2.8,0,5.6-0.7,8.1-2c35-18.3,65.6-45.2,88.5-77.8 c29.5-42,45.1-91.5,45.1-143.1v-97.6C349,112.6,343.9,105.7,336.5,103.6z M325.7,218c0,46.8-14.1,91.6-40.9,129.7 c-20.2,28.7-46.9,52.6-77.5,69.1c-30.6-16.6-57.3-40.4-77.5-69.1C103.1,309.6,89,264.7,89,218v-93.3l118.4-34.9l118.4,34.9V218z"></path> </g> </g> </svg>
